X: 51
T:Gan Ainm
M:6/8
S:Unknown fiddler
R:Jig
D:Session tape -  Mullach, Clare 1985
Z:Bernie Stocks
K:G
dgg dgg | fdc ABc |1 dgg dgg | fdB ~c3 :|2 dcd gdB | cAF G3 :: dcd gdB |\
cAG FGA | dcd gdB | cAB ~c3 | dcd gdB | cAG FGA | def gdB | cAF G3 :|
<end>
<start>
